public/static/i-tax-mitigation.svg

<svg width="250" height="250" viewBox="0 0 250 250" fill="none" xmlns="http://www.w3.org/2000/svg">
<rect width="250" height="250" fill="#E5E5E5"/>
<g id="REVOLVE_TAX_MITIGATION">
<g id="Group 1">
<g id="ICON">
<path id="Vector" d="M97.69 119.24C96.5508 119.24 95.4371 119.578 94.4899 120.211C93.5427 120.844 92.8044 121.743 92.3685 122.796C91.9325 123.848 91.8184 125.006 92.0407 126.124C92.2629 127.241 92.8115 128.267 93.6171 129.073C94.4226 129.878 95.4489 130.427 96.5663 130.649C97.6836 130.872 98.8418 130.758 99.8943 130.322C100.947 129.886 101.846 129.147 102.479 128.2C103.112 127.253 103.45 126.139 103.45 125C103.447 123.473 102.84 122.01 101.76 120.93C100.68 119.85 99.2168 119.243 97.69 119.24Z" fill="black"/>
<path id="Vector_2" d="M152.31 119.24C151.171 119.24 150.057 119.578 149.11 120.211C148.163 120.844 147.424 121.743 146.988 122.796C146.552 123.848 146.438 125.006 146.661 126.124C146.883 127.241 147.432 128.267 148.237 129.073C149.043 129.878 150.069 130.427 151.186 130.649C152.304 130.872 153.462 130.758 154.514 130.322C155.567 129.886 156.466 129.147 157.099 128.2C157.732 127.253 158.07 126.139 158.07 125C158.067 123.473 157.46 122.01 156.38 120.93C155.3 119.85 153.837 119.243 152.31 119.24V119.24Z" fill="black"/>
<path id="Vector_3" d="M125 112.64C122.555 112.64 120.166 113.365 118.133 114.723C116.101 116.081 114.516 118.012 113.581 120.27C112.645 122.529 112.401 125.014 112.877 127.411C113.354 129.809 114.532 132.011 116.26 133.74C117.989 135.468 120.191 136.646 122.589 137.123C124.986 137.599 127.471 137.355 129.73 136.419C131.988 135.484 133.919 133.899 135.277 131.867C136.635 129.834 137.36 127.445 137.36 125C137.357 121.723 136.054 118.58 133.737 116.263C131.42 113.946 128.277 112.643 125 112.64V112.64ZM125 130.76C123.861 130.76 122.747 130.422 121.8 129.789C120.853 129.156 120.114 128.257 119.678 127.204C119.242 126.152 119.128 124.994 119.351 123.876C119.573 122.759 120.122 121.733 120.927 120.927C121.733 120.122 122.759 119.573 123.876 119.351C124.994 119.128 126.152 119.243 127.204 119.678C128.257 120.114 129.156 120.853 129.789 121.8C130.422 122.747 130.76 123.861 130.76 125C130.76 126.528 130.153 127.993 129.073 129.073C127.993 130.153 126.528 130.76 125 130.76V130.76Z" fill="black"/>
<path id="Vector_4" d="M67.33 94.69V155.49H182.67V94.49L67.33 94.69ZM73.93 101.28H89.72L73.93 117V101.28ZM73.93 148.89V133L89.85 148.92L73.93 148.89ZM99.18 148.89L75.3 125L99.06 101.24L150.86 101.16L174.7 125L150.82 148.89H99.18ZM176.07 148.89H160.15L176.07 133V148.89ZM176.07 117.04L160.18 101.15H176.07V117.04Z" fill="black"/>
</g>
<g id="TEXT">
<path id="Vector_5" d="M24.1 166.5L14.3 170.73L12.69 167.01L9.60001 168.34L14.23 179.09L17.33 177.76L15.72 174.04L25.53 169.81L24.1 166.5Z" fill="black"/>
<path id="Vector_6" d="M21.13 158.49L18.94 158.42L17.65 154L19.46 152.74L18.33 148.87L6.33 157.71L7.33 161.27L22.24 162.27L21.13 158.49ZM14.37 158.27L11.37 158.22L13.86 156.59L14.76 155.97L15.44 158.3L14.37 158.27Z" fill="black"/>
<path id="Vector_7" d="M17.99 147.28L17.39 143.09L14.85 141.92L12.77 141L14.51 139.53L16.63 137.71L16.03 133.41L9.65999 139.27L2.14999 135.52L2.72999 139.67L5.13999 140.78L7.15999 141.68L5.46999 143.1L3.45999 144.84L4.05999 149.1L10.24 143.41L17.99 147.28Z" fill="black"/>
<path id="Vector_8" d="M15.9 122.17L11.23 121.88L8.17 121.74L10.53 121.24L16.04 119.96L16.26 116.55L10.95 114.59L8.67 113.8L11.72 114.04L16.4 114.34L16.62 110.78L2.6 109.9L2.3 114.69L7.5 116.63L11.01 117.89L7.37 118.71L1.97 119.98L1.67 124.78L15.69 125.66L15.9 122.17Z" fill="black"/>
<path id="Vector_9" d="M4.19563 101.253L3.55441 104.795L17.3798 107.298L18.021 103.755L4.19563 101.253Z" fill="black"/>
<path id="Vector_10" d="M9.32 94.03L19.59 96.93L20.57 93.47L10.3 90.56L11.4 86.67L8.16 85.75L4.98 97.01L8.22 97.92L9.32 94.03Z" fill="black"/>
<path id="Vector_11" d="M11.0443 78.3712L9.7325 81.7237L22.8072 86.8397L24.119 83.4873L11.0443 78.3712Z" fill="black"/>
<path id="Vector_12" d="M21.7 70.16L24.38 71.57L25.64 69.16C26.0196 69.6505 26.2378 70.2466 26.2647 70.8662C26.2916 71.4858 26.1257 72.0985 25.79 72.62C24.74 74.62 22.79 75.13 20.64 74C18.49 72.87 17.79 71 18.85 69C19.106 68.3744 19.5774 67.8611 20.1791 67.5529C20.7807 67.2448 21.4727 67.1622 22.13 67.32L23.92 63.92C21.81 62.92 18.04 63.23 15.82 67.45C15.3435 68.294 15.045 69.2268 14.9432 70.1907C14.8413 71.1546 14.9382 72.1291 15.2277 73.0541C15.5173 73.9791 15.9935 74.8349 16.6268 75.5686C17.2602 76.3023 18.0372 76.8984 18.91 77.32C20.5265 78.2506 22.4455 78.5037 24.248 78.024C26.0504 77.5444 27.5899 76.3709 28.53 74.76C28.9733 74.0214 29.2206 73.1818 29.2486 72.3208C29.2766 71.4598 29.0843 70.6059 28.69 69.84L30.32 70.7L31.72 68L24.72 64.34L21.7 70.16Z" fill="black"/>
<path id="Vector_13" d="M24.37 54L32.7 66.4L35 63.26L33.71 61.47L36.42 57.77L38.52 58.43L40.89 55.17L26.56 51L24.37 54ZM32.09 56.33L33.09 56.67L31.66 58.67L31.01 57.78L29.24 55.39L32.09 56.33Z" fill="black"/>
<path id="Vector_14" d="M41.56 38.92L39.11 36.61L31.1 45.15L33.56 47.45L36.33 44.5L44.11 51.8L46.58 49.17L38.79 41.87L41.56 38.92Z" fill="black"/>
<path id="Vector_15" d="M45.0775 31.3679L42.3713 33.742L51.6303 44.2962L54.3365 41.9221L45.0775 31.3679Z" fill="black"/>
<path id="Vector_16" d="M54.46 23.74C53.6276 24.2593 52.9118 24.9455 52.3579 25.7552C51.8039 26.565 51.4238 27.4808 51.2415 28.4448C51.0592 29.4089 51.0787 30.4002 51.2988 31.3563C51.5188 32.3125 51.9346 33.2126 52.52 34C53.0553 34.8258 53.7564 35.5312 54.5788 36.0717C55.4012 36.6121 56.327 36.9756 57.2974 37.1393C58.2678 37.3029 59.2616 37.263 60.2157 37.0221C61.1699 36.7812 62.0636 36.3446 62.84 35.74C63.6754 35.2208 64.3938 34.5337 64.9497 33.7223C65.5055 32.9109 65.8867 31.9928 66.0691 31.0263C66.2515 30.0598 66.2311 29.066 66.0092 28.1078C65.7873 27.1495 65.3687 26.2479 64.78 25.46C64.2431 24.6357 63.5408 23.9321 62.7176 23.3936C61.8944 22.8551 60.9683 22.4935 59.998 22.3318C59.0277 22.1701 58.0344 22.2117 57.0811 22.4541C56.1278 22.6966 55.2352 23.1344 54.46 23.74V23.74ZM60.89 33C60.4825 33.3127 60.0127 33.5343 59.5122 33.6499C59.0117 33.7654 58.4923 33.7723 57.9889 33.6699C57.4856 33.5675 57.0101 33.3583 56.5945 33.0564C56.1789 32.7546 55.833 32.367 55.58 31.92C55.2604 31.519 55.0264 31.0568 54.8925 30.5619C54.7585 30.0669 54.7275 29.5498 54.8014 29.0424C54.8752 28.535 55.0523 28.0481 55.3217 27.6119C55.5912 27.1756 55.9472 26.7993 56.3679 26.5061C56.7885 26.2129 57.2648 26.009 57.7673 25.9072C58.2698 25.8053 58.7879 25.8076 59.2895 25.9138C59.7911 26.0201 60.2656 26.2281 60.6836 26.525C61.1017 26.8219 61.4544 27.2014 61.72 27.64C62.0508 28.0331 62.2936 28.4926 62.4321 28.9873C62.5706 29.4821 62.6015 30.0008 62.5229 30.5086C62.4443 31.0163 62.2579 31.5014 61.9762 31.9311C61.6946 32.3608 61.3242 32.7253 60.89 33V33Z" fill="black"/>
<path id="Vector_17" d="M74.45 28.3L72.29 23.89L71 21.47L79.83 25.66L82.71 24.24L76.52 11.64L73.38 13.18L75.54 17.57L76.81 20L68 15.82L65.11 17.25L71.3 29.85L74.45 28.3Z" fill="black"/>
</g>
</g>
</g>
</svg>

<svg data-name="Layer 1" xmlns="http://www.w3.org/2000/svg" viewBox="0 0 250 250"><circle cx="125" cy="125" r="125" fill="none"/><path d="M97.69 119.24a5.76 5.76 0 105.76 5.76 5.77 5.77 0 00-5.76-5.76zM152.31 119.24a5.76 5.76 0 105.76 5.76 5.77 5.77 0 00-5.76-5.76zM125 112.64A12.36 12.36 0 10137.36 125 12.37 12.37 0 00125 112.64zm0 18.12a5.76 5.76 0 115.76-5.76 5.76 5.76 0 01-5.76 5.76z"/><path d="M67.33 94.69v60.8h115.34v-61zm6.6 6.59h15.79L73.93 117zm0 47.61V133l15.92 15.92zm25.25 0L75.3 125l23.76-23.76 51.8-.08L174.7 125l-23.88 23.89zm76.89 0h-15.92L176.07 133zm0-31.85l-15.89-15.89h15.89zM24.1 166.5l-9.8 4.23-1.61-3.72-3.09 1.33 4.63 10.75 3.1-1.33-1.61-3.72 9.81-4.23-1.43-3.31zM21.13 158.49l-2.19-.07-1.29-4.42 1.81-1.26-1.13-3.87-12 8.84 1 3.56 14.91 1zm-6.76-.22l-3-.05 2.49-1.63.9-.62.68 2.33zM17.99 147.28l-.6-4.19-2.54-1.17-2.08-.92 1.74-1.47 2.12-1.82-.6-4.3-6.37 5.86-7.51-3.75.58 4.15 2.41 1.11 2.02.9-1.69 1.42-2.01 1.74.6 4.26 6.18-5.69 7.75 3.87zM15.9 122.17l-4.67-.29-3.06-.14 2.36-.5 5.51-1.28.22-3.41-5.31-1.96-2.28-.79 3.05.24 4.68.3.22-3.56-14.02-.88-.3 4.79 5.2 1.94 3.51 1.26-3.64.82-5.4 1.27-.3 4.8 14.02.88.21-3.49zM3.554 104.795l.642-3.542 13.825 2.502-.641 3.543zM9.32 94.03l10.27 2.9.98-3.46-10.27-2.91 1.1-3.89-3.24-.92-3.18 11.26 3.24.91 1.1-3.89zM9.733 81.724l1.311-3.353 13.075 5.116-1.312 3.353zM21.7 70.16l2.68 1.41 1.26-2.41a3 3 0 01.15 3.46c-1.05 2-3 2.51-5.15 1.38s-2.85-3-1.79-5a2.83 2.83 0 013.28-1.68l1.79-3.4c-2.11-1-5.88-.69-8.1 3.53a7.09 7.09 0 003.09 9.87 7.06 7.06 0 009.62-2.56 5.06 5.06 0 00.16-4.92l1.63.86 1.4-2.7-7-3.66zM24.37 54l8.33 12.4 2.3-3.14-1.29-1.79 2.71-3.7 2.1.66 2.37-3.26L26.56 51zm7.72 2.33l1 .34-1.43 2-.65-.89-1.77-2.39zM41.56 38.92l-2.45-2.31-8.01 8.54 2.46 2.3 2.77-2.95 7.78 7.3 2.47-2.63-7.79-7.3 2.77-2.95zM42.371 33.742l2.706-2.374 9.26 10.554-2.707 2.374zM54.46 23.74A7.1 7.1 0 0052.52 34a7.1 7.1 0 0010.32 1.74 7.1 7.1 0 001.94-10.28 7.1 7.1 0 00-10.32-1.72zM60.89 33a3.59 3.59 0 01-5.31-1.08 3.75 3.75 0 116.14-4.28 3.6 3.6 0 01-.83 5.36zM74.45 28.3l-2.16-4.41L71 21.47l8.83 4.19 2.88-1.42-6.19-12.6-3.14 1.54 2.16 4.39L76.81 20 68 15.82l-2.89 1.43 6.19 12.6 3.15-1.55z"/></svg>
